X: 1134
T: Elizabeth Adair
C: Angus Fitchet
M: 6/8
L: 1/8
R: Jig
K: Bb
|: B2 G | 
F2 D B2 A | G2 E c2 B | ABc FGA | B2 d f3 |
F2 D B2 A | G2 E c2 B | ABc FGA |[1 B3 :|[2 B3- B ||
|: fe |
d2 e fdf | ede c2 f | dfd B2 e | cFF F2 f |
[1 d2 e fdf | ede c2 f | def FGA | B3- B :|
[2 def efg | fed c2 g | fdB FGA |  B3 ||
